X:1
T:The Girl I Left Behind Me
L:1/4
M:4/4
I:linebreak $
K:G
V:1 treble
V:1
 g/f/ |: |"G" e d B G |"C" A/B/A/G/ E D |"G" G G G/A/B/c/ |"D" d2 B g/f/ |$"G" e d B G |"C" A/B/A/G/ E G | %8
"D" F A D E/F/ |1"G" G2 G g/f/ :|2"G" G2 G B/c/ ||
|:$"G" d d "D"e f |"G" g d B B/c/ | d d "D"e f |"G" g2 "D" f g/f/ 
|$"G" e d B G |"C" A/B/A/G/ E G |"D" F A D E/F/ |1"G" G2 G B/c/ :|2 "G"G2 G |] %22
